X:511
T:Dan Leno's Boat
M:2/4
L:1/8
K:D
A2 | d2 c2 B2 A2 | F2 FF F2 A2 | d2 c2 B2 A2 | G2 GG G2 F2 | 
E2 F2 G2 A2 | c2 cc c2 B2 | A2 AA B2 A2 | F4 A4 | 
d2 c2 B2 A2 | F2 FF F2 A2 | d2 c2 B2 A2 | G2 GG G2 F2 | 
E2 F2 G2 A2 | c2 cc c2 B2 | A2 AA G2 E2 | D6 || 
A2 | F2 A2 F2 A2 | F2 FF F2 A2 | F2 A2 F2 A2 | G2 GG G2 F2 | 
E2 F2 G2 A2 | c2 cc c2 B2 | A2 AA B2 A2 | F4 A4 | 
F2 A2 F2 A2 | F2 FF F2 A2 | F2 A2 F2 A2 | G2 GG G2 F2 | 
E2 F2 G2 A2 | c2 cc c2 B2 | A2 AA G2 E2 | D6 || 

